X: 2
T: Green Willis
I: Green Willis	R-31	D	reel
M: C|
R: reel
K: D
(3ABc| "D"dAdA d2fe| dAdA d2gf| "A"edcB ABcd| edcB A2 (3ABc|
       "D"dAdA d2fe| dAdA d2gf| "A"edcA B2c2| "D"d2de d2 :|
|:fg | "D"agfg agfe| d2de d2ef| "G"gfga bagf| "A"edcB A2fg|
     "D"agfg agfe| d4 "G"g3f| "A"edcA B2c2| "D"d2de d2 :|
%%text Roaring Jelly  R-31
%%text 08/29/98 

#include "LeftHeader.h"
% ---------- set 28 ----------
% Trip to Duro (D) / Ships Are Sailing (EDor) / Mason's Apron (A)
%%text Set 28
%%vskip -1cm
%%scale .67
